static/images/shuttle.svg

<?xml version="1.0" encoding="iso-8859-1"?>
<!-- Generator: Adobe Illustrator 19.0.0, SVG Export Plug-In . SVG Version: 6.00 Build 0)  -->
<svg version="1.1" id="Capa_1" xmlns="http://www.w3.org/2000/svg" xmlns:xlink="http://www.w3.org/1999/xlink" x="0px" y="0px"
	 viewBox="0 0 51.636 51.636" style="enable-background:new 0 0 51.636 51.636;" xml:space="preserve">
<path d="M51.353,0.914c-0.295-0.305-0.75-0.39-1.135-0.213L0.583,23.481c-0.399,0.184-0.632,0.605-0.574,1.041
	s0.393,0.782,0.826,0.854l22.263,3.731l2.545,21.038c0.054,0.438,0.389,0.791,0.824,0.865c0.057,0.01,0.113,0.015,0.169,0.015
	c0.375,0,0.726-0.211,0.896-0.556l24-48.415C51.72,1.675,51.648,1.218,51.353,0.914z M27.226,46.582l-2.232-18.457
	c-0.054-0.44-0.391-0.793-0.828-0.866L4.374,23.941L48.485,3.697L27.226,46.582z"/>
<g>
</g>
<g>
</g>
<g>
</g>
<g>
</g>
<g>
</g>
<g>
</g>
<g>
</g>
<g>
</g>
<g>
</g>
<g>
</g>
<g>
</g>
<g>
</g>
<g>
</g>
<g>
</g>
<g>
</g>
</svg>

<?xml version="1.0" encoding="UTF-8"?>
<svg width="52px" height="52px" viewBox="0 0 52 52" version="1.1" xmlns="http://www.w3.org/2000/svg" xmlns:xlink="http://www.w3.org/1999/xlink">
    <title>shuttle</title>
    <defs></defs>
    <g id="Page-1" stroke="none" stroke-width="1" fill="none" fill-rule="evenodd">
        <g id="shuttle">
            <path d="M51.353,0.914 C51.648,1.218 51.72,1.675 51.532,2.054 L27.532,50.469 C27.362,50.814 27.011,51.025 26.636,51.025 C26.58,51.025 26.524,51.02 26.467,51.01 C26.032,50.936 25.697,50.583 25.643,50.145 L23.098,29.107 L0.835,25.376 C0.402,25.304 0.067,24.958 0.009,24.522 C-0.049,24.086 0.184,23.665 0.583,23.481 L50.218,0.701 C50.603,0.524 51.058,0.609 51.353,0.914 Z" id="Background" fill="#33A7FF"></path>
            <path d="M51.353,0.914 C51.058,0.609 50.603,0.524 50.218,0.701 L0.583,23.481 C0.184,23.665 -0.049,24.086 0.009,24.522 C0.067,24.958 0.402,25.304 0.835,25.376 L23.098,29.107 L25.643,50.145 C25.697,50.583 26.032,50.936 26.467,51.01 C26.524,51.02 26.58,51.025 26.636,51.025 C27.011,51.025 27.362,50.814 27.532,50.469 L51.532,2.054 C51.72,1.675 51.648,1.218 51.353,0.914 Z M27.226,46.582 L24.994,28.125 C24.94,27.685 24.603,27.332 24.166,27.259 L4.374,23.941 L48.485,3.697 L27.226,46.582 Z" id="Shape" fill="#085691"></path>
        </g>
    </g>
</svg>
